X:1
T:Salve Regina
T:Salve Regina
T:Georgius Prenner
C:Georgius Prenner
%%score [ 1 2 3 4 ]
L:1/8
Q:1/4=120
M:2/2
K:F
V:1 treble nm="Soprano" snm="S"
V:2 treble nm="Alto" snm="A"
V:3 treble-8 nm="Tenor" snm="T"
V:4 bass nm="Bass" snm="B"
V:1
"^Source: Novi Thesauri Musici---Liber IV---A.Gardano---Venetii---1568.\nEditor: André Vierendeels (23/01/76)" d4 c4 | %1
w: Sal- *|
 d4 G2 c2 | B2 A2 G2 E2- | ED G3"^#" F/E/"^#" F2 | G4 z2 F2 | G2 B3 A/G/ A2 | B3 c d2"^b" e2 | %7
w: * ve Re-|gi- * na, Re-|* * gi- * * *|na mi-|se- ri- * * *|cor- * * di-|
 d2 d3 cBA | G2 A3 G G2- | G2"^#" F2 G4- | G4 z2 d2- | d2 cB c2 d2 | G2 B2 A4- | A2 B3 A G2- | %14
w: ae, mi- * * *|se- ri- * cor-|* di- ae|_ vi-||ta dul- ce-||
 G2 F2 E2 D2 | A4 z4 | G4 A2 c2- | c2 B2 A2 f2- | f2 e2 d2 c2 | B2 G2 A2 B2- | BA G4 F2 | G8 | z8 | %23
w: |do|et spes no-|* * stra, et|_ spes no- *|stra sal- * *||ve,||
 z2 G2 B3 c | d4 z2 c2- | cB/A/ B2 c4 | d3 c B2 A2- | A2 G2 A2 c2- | c2 B2 A2 G2 | B2 A3 G G2- | %30
w: ad te- _|_ cla-||ma- * * *|* * mus, ex-|* su- les, fi-|lii He- * *|
 G2 F2 G4- | G4 z2 G2 | B3 c d2 f2 | fecd"^b" e2 d2- | d2 c2 d4 | z8 | z2 G2 B2 c2 | GABA GF F2- | %38
w: * * ve,|_ ad|te _ _ su-|spi- * * * * ra-|* * mus||ge- men- tes|et _ _ _ _ _ _|
 F2 E2 F2 G2 | G2 F2 B2 c2 | d2 e2 f3 e/d/ | c2 f3 e d2- | d2 c2 d4 | z4 B4 | c4"^#" B3 A/G/ | %45
w: _ flen- tes in|hac- _ la- cri-|ma- rum val- * *||* * le,|e-|ya _ _ _|
 A2 d4"^#" c2 | d2 f4 c2 | d2 A2 B2 G2 | A4 z2 B2- | B2 B2 c4- | c2 B2 z4 | z4 A4 | A2 A2 B4 | %53
w: _ er- *|go, ad- vo-|ca- ta no- *|stra il-|* los tu-|* os|mi-|se- ri- cor-|
 A2 d4 c2 | A2 B2 A2 G2- | GF/"^#"E/"^#" F2 G4 ||"^SECUNDA PARS" B4 c4 | B4 A4- | A4 z2 A2 | %59
w: des o- cu-|los ad nos con-|* * * ver- te.|Et Je-|* sum|_ be-|
 A2 G2 A2 c2- | c2 B2 A2 G2 | B2 A3 G G2- | G2"^#" F2 G2 G2 | d4 e4 | d4 z2 c2 | d2 e2 e2 d2 | %66
w: ne di- ctum fru-|* ctum ven- tris|tu- * * *|* * i, no-||bis post|hoc ex- si- li-|
 f4 e2 d2- | d"^#"c"^#" c2 d4 | z2 d2 dcde | f2 e3 d d2- | d2"^#" c2 d4 | z8 | e4 f3 e | %73
w: um, o- sten-|* * * de,|O cle- * * *||* * mens,||O pi- *|
 dc e3 d d2- | d2"^#" c2 d4 |[M:3/2] z6 B4 c2 | d4"^b" e2 d2 G2 A2 | c2 B3 A G4"^#" F2 | G12 |] %79
w: |* * a,|O dul-|cis vir- go ma- ter|Ma- ri- * * *|a.|
V:2
 z8 | z4 z2 G2- | G2 F2 G4 | C4 z2 D2 | DCB,A, G,2 C2 | D3 E F2 F2 | B,2 B3 A G2- | G2 F2 G2 D2- | %8
w: |Sal-||ve Re-|gi- * * * na mi-|se- * * ri-|cor- * * *|* di- ae mi-|
 DE F2 E2 C2 | D2 D2 B,4 | z2 G3 F/E/ F2 | G4 C2 F2 | E2 G2 F2 E2- | ED D3 C/B,/ C2 | %14
w: * * * se- ri-|cor- di- ae|vi- * * *|* ta, vi-|ta dul- ce- *||
 B,2 A,3 G, G2- | G2 F2 G2 D2 | E2 G4 F2 | G4 z2 A2 | B2 c2 B2 A2 | G4 z2 G,2 | B,3 C D2 D2 | %21
w: |||do et|spes no- stra sal-|ve, ad|te _ _ cla-|
 _E2 D3 CB,A, | G,2 G4 F2 | G4 z2 G2 | B2 B2 A4 | G2 G3 F E2 | D6 C2 | F2 D2 C2 A2- | %28
w: ma- * * * *||mus, *|te cla- ma-|mus ex- su les|fi- lii|He- * ve, ex|
 A2 G2 F2 B,C | DE F2 G2 C2 | D4 B,4 | z2 G,2 B,3 C | D2 G4 FE | F2 A2 G2 F2 | E4 D2 G2 | %35
w: _ su- les fi- *|* * * lii He-|* ve,|Ad te _|_ su- * *|* spi- ra- *|* mus, su-|
 F2"^b" E2 D2 C2 | D2 D2 G2 F2 | z2 _E4 C2- | CB, G,2 A,2 D2 | D2 C2 G2 G2 | G4 F2 A2- | %41
w: spi ra- * *|mus, ge- men- tes|et flen-|* * * tes in|hac _ la- cri-|ma- rum val-|
 AGFE D2 F2 | E4 D2 B2 | G2 A3 G G2- | G2 F2 G2 G2 | F3 E/D/ E4 | D2 A4 A2 | F2 F2 D4 | E4 D4- | %49
w: |* le, e-|ya er- * *|* * go, e-|ya _ _ er-|go, ad- vo-|ca- ta no-|* stra|
 D4 z4 | z8 | G4 F4- | F2 F2 D3 E | F2 B3 A G2 | F2 F2 E2 C2 | D4 D4 || G4 A4 | G4 F4- | F4 z2 C2 | %59
w: _||mi- se-|* ri- cor- *|des o- * cu-|los ad nos con-|ver- te.|Et Je-|* sum|_ be-|
 D3 E F2 E2 | G2 G2 F2 D2- | D2 D2 _E4 | D2 D4 G2- | G2 G2 G4- | G4 E4 | z2 E2 C2 D2 | %66
w: ne- * * di-|ctum fruc- tum ven-|* tris tu-|i no- *|* bis post|_ hac|ex- si- li-|
 C2 c2 B2 G2 | A4 z2 A2- | A2 F2 G3 F | D2 E2 F2 G2 | E4 D4 | z8 | G4 F3 G | AB c3 B G2 | A4 A4 | %75
w: um o- sten- *|de, O|_ cle- * *||* mens||O pi- *||* a,|
[M:3/2] z6 G4 G2 | F4 G2 G2 D2 F2 | E2 D2 B,2 C2 D4 | D12 |] %79
w: O dul-|cis vir- go ma- ter|Ma- ri- * * *|a.|
V:3
 z8 | d4 c4 | d4 G2 c2- | cB G2 A4 | G4 z4 | z4 z2 F2 | G3 A B2 c2 | d4 B2 G2 | B2 c3 BAG | %9
w: |Sal- *|* ve Re-|* * * gi-|na|mi-|se- ri- cor- di-|ae mi- se-|ri- cor- * * *|
 A2 A2 G4- | G4 z4 | z8"^b" | z2 d3 c/B/ c2 | d4 G4 | d4 c2 B2 | A4 G4 | z4 c4 | d4 f4 | g4 f3 e | %19
w: * di- ae|_||vi- * * *|* ta|dul- ce- *|* do|et|spes- *|no- stra _|
 d2 c4 BA | G4 A4 | G4 z2 G2 | B4 c3 d |"^b" e2 d3 cBA | G2 g2 e2 f2 | d4 c4 | z2 g4 f2 | %27
w: _ sal- * *||ve, ad|te _ _|_ _ _ _ _|* cla- ma- *|* mus-|ex- su-|
 d3 e f2 e2 | d6 d2 | B2 c3 BBA/G/ | A4 G4- | G8 | z2 G2 B3 c | d2 f2 c2 d2 | A4 z2 d2- | %35
w: les _ _ fi-|lii He-||* vae,|_|ad te _|_ su- spi- ra-|mus, su-|
 dc B2 A2 G2 | A2 B2 d2 c2 | d2 B4 A2 | G4 F2 B2 | G2 A2 B2 e2 | d2 c2 d4 | z4 f4 | g4 f3 e/d/ | %43
w: * * * spi- ra-|mus ge- men- tes|et flen- *|* tes in|hac la cri- ma-|rum val- le,|E-|ya _ _ _|
 e4 d4 | z8 | z8 | f6 e2 | d2 c2 B2 d2- | dc c2 d2 g2- | g2 g2 f2 e2 | g4 f3 e/d/ | e4"^#" d2 d2 | %52
w: er- go,|||ad- vo-|ca- ta no- *|* * * stra il-|* los tu- *||* os mi-|
 c2 c2 B4 | c2 f4 e2 | d2 d2 c2 G2 | A4 G4 || d4 f4 | d4 d2 A2- | ABcd e2 f2- | fe d4 c2 | %60
w: se- ri- cor-|des o- cu-|los ad nos- con-|ver- te.|Et Je-|* sum be-|* * * * * ne-|* * * di-|
 d2 d3 cBA | G2 A2 B2 c2 | A4 G4 | z2 G4 c2- | c2"^-natural" B2 c2 c2 | g6 g2 | a2 a2 gfed | %67
w: ctum fru- * * *|* ctum ven- tris|tu- i|no- *|* * bis post|hoc ex-|si- li- um _ os- *|
 e4 d4- | d4 z4 | z8 | z2 g4 fe | d2 e3 d d2- | d2"^#" c2 d2 f2- | f2 g3 f d2 | e4 d4 | %75
w: ten- de|,||O- * *|* cle- * *|* * mens O|_ pi- * *|* a,|
[M:3/2] z6 d4 G2 | A4 c2 B4 A2 | G2 F4 G2 A4 | G12 |] %79
w: O dul-|cis vir- go ma-|ter Ma- ri- *|a.|
V:4
 z8 | z8 | z2 D,2 E,2 C,2 | E,4 D,4 | z2 G,2 B,2 A,2 | G,2 G,2 F,4 | z8 | D,4 G,4- | %8
w: ||Sal- ve Re-|gi- na|mi- se- ri-|cor- di- ae||mi- se-|
 G,2 F,2 C,2"^b" E,2 | D,4 z2 D2- | D2 CB, C2 D2 | G,2 E3 D B,2 | C2 G,2 A,3 G, | F,2 G,2 _E,4 | %14
w: * ri- cor- di-|ae vi-||ta dul- * *|ce- * * *||
 D,4 z2 G,2 | A,2 C4 B,2 | C4 A,4 | G,4 F,4 | z2 C,2 D,2 F,2- | F,2 E,2 F,2 G,2- | G,F, E,2 D,4 | %21
w: do et|spes no- *|stra sal-|* ve,|et spes no-|* * stra sal-|* * * ve|
 z2 G,2 B,3 C | D2 G,2 A,4 | G,8 | z2 G,2 A,2 F,2 | G,4 C,2 C2- | C2 B,2 G,2 A,2 | B,4 A,3 G, | %28
w: ad te _|_ cla- ma-|mus|ad te cla-|ma- mus ex-|* su- les fi-|lii He _|
 F,2 G,2 D,2 G,2- | G,2 F,2 _E,4 | D,4 z2 G,2 | B,3 C D4 | z8 | z8 | z2 A,2 B,3 C | %35
w: _ _ vae, fi-|* lii He-|vae ad|te _ _|||ad te _|
 D2 G,2 F,2 E,2 | D,2 G,2 G,2 A,2 | B,A,G,F, _E,2 F,2 | C,4 z2 G,2 | B,2 F,2 G,2 C,2 | %40
w: _ su- spi- ra-|mus ge- men- tes|et _ _ _ _ flen-|tes in|hac la- cri- ma-|
 G,2 E,2 D,4 | z8 | z4 B,4 | C4 B,3 A,/G,/ | A,4 G,4 | z8 | D6 A,2 | B,2 F,2 G,2 B,2 | %48
w: rum val- le||e-|ya _ _ _|er- go||ad- vo-|a- ta no- *|
 A,4 z2 G,2- | G,2 B,2 A,2 C2- | CB,G,A, B,C D2- | D2 C2 D2 D,2 | F,2 F,2 G,4 | F,2 B,,4 C,2 | %54
w: stra il-|* los tu- *||* * os mi-|se- ri- cor-|des o- cu-|
 D,2 B,,2 C,2"^b" E,2 | D,4 G,4 || G,4 F,4 | G,4 D,4 | z2 F,2 G,2 A,2 | B,4 A,4 | G,4 D,2 G,2- | %61
w: los ad nos con-|ver- te.|Et Je-|* sum|be- ne- *|di- *|* ctum fru-|
 G,2 F,2 _E,2 C,2 | D,4 G,4 | z4 C,4 | G,4 A,4 | G,2 C2 C2 B,2 | A,2 F,2 G,2 B,2 | A,4 D,4- | %68
w: * ctum ven- tis|tu- i,|no-||bis post hoc ex-|si- li- um o-|sten- de.|
 D,4 z4 | z8 | z4 G,4 | G,2 F,E, F,2 G,2 | E,4 D,2 D2- | %73
w: _||O|cle- * * * *|* mens, O|
 D2"^Notes: Original keys: Sol, Ut 2nd, Ut 3rd, Fa 3rd.\n            Note values have been halved\n            Editorial accidentals above the staff" C4 B,2 | %74
w: _ pi- *|
 A,4 D,4 |[M:3/2] z6 G,4 E,2 | D,4 C,2 G,4 F,2 | C,2 D,4"^b" E,2 D,4 | G,12 |] %79
w: * a,|O dul-|cis vir- go ma-|ter Ma ri- *|a.|

